X: 1
T: Celtic Lament
R: air
Z: 2010 John Chambers <jc:trillian.mit.edu>
S: printed MS of unknown origin
M: C
L: 1/8
K: F
CE \
| "F"F3G FEDC | "Bb"D4 "F"F4 | "C7"A3B "F"c>dAc | "G7"GFDF "C7"G3A \
| "Bb"B3c "Gm"d2fe | "C7"dcAG "F"A3F | "Bb"d2cB "F"cAGF | "Gm"BG"C7"FE "F"F4 |]
[|"Gm"G3A B2AG | "Dm"FDDF "Gm"G4 | "F"F3G A2GF | "Dm"DFDC D2FA \
| "Bb"B3c "Gm"d2fe | "C7"dcAG "F"A3F | "Bb"d2cB "F"cAGF | "Gm"BG"C7"FE "F"F2 |]
